X:1685
T:the Spanish Dance
A:Wyresdale, Lancashire
B:E and J Winder, 1835-41
L:1/8
M:2/4
O:England
Z:Richard Robinson 
%%RRN:"1837"
%%TUNEURL: http://www.leeds.ac.uk/music/Info/RRTuneBk/gettune/00001273.html
%%ID:00001273
K:C
c/e/ | \
gg g/a/b/c'/   | (ge).g a/g/ | (fd).f g/f/ | ecc (c/e/) | \
gg (g/a/b/c'/) | (ge).g a/g/ | (fd).f g/f/ | ecc ::
G/B/ | \
%
% actually written
%.d.d.d (d/e/) | fdec | dgG G/B/ | \
%
.d.d.d (d/e/) | .e.e.e (d/e/) | fdec | dgG G/B/ | \
ddd (c/d/) | .e.e.e (d/e/) | fdec | g3 :|
%%newpage
%page 135
